static/assets/images/tokens/stusdt.svg

<svg width="256" height="256" viewBox="0 0 256 256" fill="none" xmlns="http://www.w3.org/2000/svg">
<path fill-rule="evenodd" clip-rule="evenodd" d="M256 128C256 198.692 198.692 256 128 256C57.3075 256 0 198.692 0 128C0 57.3075 57.3075 0 128 0C198.692 0 256 57.3075 256 128Z" fill="black"/>
<path d="M109.056 155.66C94.3497 154.975 79.7337 153.49 65.3082 150.492C58.4406 149.066 35.8939 143.993 36.5125 134.073C37.088 124.846 56.6422 120.155 63.5201 118.639C78.5253 115.327 93.7414 113.933 109.056 113.093C109.116 113.09 109.146 113.058 109.146 112.997L109.152 90.8226C109.152 90.8042 109.149 90.786 109.142 90.7691C109.135 90.7521 109.125 90.7367 109.112 90.7238C109.099 90.7108 109.084 90.7005 109.067 90.6935C109.051 90.6865 109.033 90.6828 109.015 90.6828H59.4626C59.3943 90.6828 59.3602 90.6486 59.3602 90.5801V57.6274C59.3602 57.5425 59.4032 57.5 59.4892 57.5H194.464C194.55 57.5 194.593 57.5425 194.593 57.6274V90.5801C194.593 90.6486 194.559 90.6828 194.491 90.6828H144.93C144.866 90.6828 144.833 90.715 144.832 90.7794L144.797 135.867C144.796 136 144.729 136.072 144.596 136.083C143.029 136.205 141.619 136.288 140.367 136.333C131.032 136.676 121.7 136.642 112.37 136.233C111.546 136.196 110.513 136.125 109.269 136.019C109.202 136.014 109.168 135.977 109.168 135.908L109.123 119.095C109.123 119.086 109.122 119.078 109.119 119.071C109.115 119.063 109.111 119.056 109.105 119.05C109.099 119.045 109.092 119.04 109.084 119.037C109.076 119.034 109.068 119.033 109.06 119.033C101.54 119.37 94.037 119.971 86.5501 120.835C78.2385 121.793 69.8245 123.163 61.816 125.396C59.8436 125.947 46.436 129.999 49.3506 133.761C49.9747 134.566 50.7277 135.231 51.6098 135.756C54.5858 137.525 57.8527 138.778 61.0991 139.695C73.1917 143.112 86.4272 144.731 98.5465 145.623C107.423 146.276 116.372 146.695 125.273 146.652C144.979 146.559 164.925 147.597 184.34 150.948C191.814 152.239 220.749 157.62 219.458 168.996C218.27 179.465 192.444 184.279 184.338 185.689C171.315 187.955 158.133 189.13 144.936 189.699C144.868 189.702 144.834 189.738 144.834 189.806L144.793 220.893C144.793 220.964 144.757 221 144.684 221H109.287C109.188 221 109.138 220.949 109.138 220.848L109.142 155.75C109.142 155.692 109.113 155.662 109.056 155.66ZM205.571 167.813C203.88 166.529 202.037 165.51 200.045 164.756C192.414 161.865 184.159 160.27 176.104 159.13C165.736 157.662 155.325 156.742 144.871 156.37C144.864 156.37 144.857 156.371 144.85 156.374C144.844 156.376 144.838 156.38 144.833 156.384C144.828 156.389 144.824 156.394 144.822 156.4C144.819 156.407 144.817 156.413 144.817 156.42L144.824 183.654C144.824 183.717 144.855 183.748 144.918 183.747C159.773 183.202 174.828 181.795 189.354 178.544C192.636 177.809 195.857 176.869 199.017 175.725C201.481 174.834 204.236 173.617 206.145 171.772C207.691 170.276 207.081 168.961 205.571 167.813Z" fill="white"/>
<path d="M109.056 155.66C94.3497 154.975 79.7337 153.49 65.3082 150.492C58.4406 149.066 35.8939 143.993 36.5125 134.073C37.088 124.846 56.6422 120.155 63.5201 118.639C78.5253 115.327 93.7414 113.933 109.056 113.093C109.116 113.09 109.146 113.058 109.146 112.997L109.152 90.8226C109.152 90.8042 109.149 90.786 109.142 90.7691C109.135 90.7521 109.125 90.7367 109.112 90.7238C109.099 90.7108 109.084 90.7005 109.067 90.6935C109.051 90.6865 109.033 90.6828 109.015 90.6828H59.4626C59.3943 90.6828 59.3602 90.6486 59.3602 90.5801V57.6274C59.3602 57.5425 59.4032 57.5 59.4892 57.5H194.464C194.55 57.5 194.593 57.5425 194.593 57.6274V90.5801C194.593 90.6486 194.559 90.6828 194.491 90.6828H144.93C144.866 90.6828 144.833 90.715 144.832 90.7794L144.797 135.867C144.796 136 144.729 136.072 144.596 136.083C143.029 136.205 141.619 136.288 140.367 136.333C131.032 136.676 121.7 136.642 112.37 136.233C111.546 136.196 110.513 136.125 109.269 136.019C109.202 136.014 109.168 135.977 109.168 135.908L109.123 119.095C109.123 119.086 109.122 119.078 109.119 119.071C109.115 119.063 109.111 119.056 109.105 119.05C109.099 119.045 109.092 119.04 109.084 119.037C109.076 119.034 109.068 119.033 109.06 119.033C101.54 119.37 94.037 119.971 86.5501 120.835C78.2385 121.793 69.8245 123.163 61.816 125.396C59.8436 125.947 46.436 129.999 49.3506 133.761C49.9747 134.566 50.7277 135.231 51.6098 135.756C54.5858 137.525 57.8527 138.778 61.0991 139.695C73.1917 143.112 86.4272 144.731 98.5465 145.623C107.423 146.276 116.372 146.695 125.273 146.652C144.979 146.559 164.925 147.597 184.34 150.948C191.814 152.239 220.749 157.62 219.458 168.996C218.27 179.465 192.444 184.279 184.338 185.689C171.315 187.955 158.133 189.13 144.936 189.699C144.868 189.702 144.834 189.738 144.834 189.806L144.793 220.893C144.793 220.964 144.757 221 144.684 221H109.287C109.188 221 109.138 220.949 109.138 220.848L109.142 155.75C109.142 155.692 109.113 155.662 109.056 155.66ZM205.571 167.813C203.88 166.529 202.037 165.51 200.045 164.756C192.414 161.865 184.159 160.27 176.104 159.13C165.736 157.662 155.325 156.742 144.871 156.37C144.864 156.37 144.857 156.371 144.85 156.374C144.844 156.376 144.838 156.38 144.833 156.384C144.828 156.389 144.824 156.394 144.822 156.4C144.819 156.407 144.817 156.413 144.817 156.42L144.824 183.654C144.824 183.717 144.855 183.748 144.918 183.747C159.773 183.202 174.828 181.795 189.354 178.544C192.636 177.809 195.857 176.869 199.017 175.725C201.481 174.834 204.236 173.617 206.145 171.772C207.691 170.276 207.081 168.961 205.571 167.813Z" fill="url(#paint0_linear_4505_910)"/>
<defs>
<linearGradient id="paint0_linear_4505_910" x1="56.3474" y1="221.001" x2="196.617" y2="221.073" gradientUnits="userSpaceOnUse">
<stop stop-color="#81F7FA"/>
<stop offset="1" stop-color="#7AFF91"/>
</linearGradient>
</defs>
</svg>

<svg xmlns="http://www.w3.org/2000/svg" fill="none" viewBox="0 0 256 256"><path fill="#000" fill-rule="evenodd" d="M256 128c0 70.692-57.308 128-128 128S0 198.692 0 128 57.308 0 128 0s128 57.308 128 128" clip-rule="evenodd"/><path fill="#fff" d="M109.056 155.66c-14.706-.685-29.322-2.17-43.748-5.168-6.867-1.426-29.414-6.499-28.796-16.419.576-9.227 20.13-13.918 27.008-15.434 15.005-3.312 30.221-4.706 45.536-5.546q.09-.005.09-.096l.006-22.174a.14.14 0 0 0-.04-.1.14.14 0 0 0-.097-.04H59.463q-.103 0-.103-.103V57.627q0-.127.13-.127h134.974q.129 0 .129.127V90.58q0 .103-.102.103H144.93q-.096 0-.098.096l-.035 45.088q-.001.2-.201.216-2.35.183-4.229.25-14.002.514-27.997-.1a80 80 0 0 1-3.101-.214q-.1-.007-.101-.111l-.045-16.813-.004-.024-.014-.021-.021-.013-.024-.004q-11.28.506-22.51 1.802c-8.311.958-16.725 2.328-24.734 4.561-1.972.551-15.38 4.603-12.465 8.365a8 8 0 0 0 2.259 1.995c2.976 1.769 6.243 3.022 9.49 3.939 12.092 3.417 25.327 5.036 37.446 5.928 8.877.653 17.826 1.072 26.727 1.029 19.706-.093 39.652.945 59.067 4.296 7.474 1.291 36.409 6.672 35.118 18.048-1.188 10.469-27.014 15.283-35.12 16.693-13.023 2.266-26.205 3.441-39.402 4.01q-.102.005-.102.107l-.041 31.087q0 .107-.109.107h-35.397q-.149 0-.149-.152l.004-65.098q0-.087-.086-.09m96.515 12.153a22 22 0 0 0-5.526-3.057c-7.631-2.891-15.886-4.486-23.941-5.626a298 298 0 0 0-31.233-2.76.06.06 0 0 0-.038.014.04.04 0 0 0-.011.016l-.005.02.007 27.234q0 .094.094.093c14.855-.545 29.91-1.952 44.436-5.203a79 79 0 0 0 9.663-2.819c2.464-.891 5.219-2.108 7.128-3.953 1.546-1.496.936-2.811-.574-3.959"/><path fill="url(#paint0_linear_4505_910)" d="M109.056 155.66c-14.706-.685-29.322-2.17-43.748-5.168-6.867-1.426-29.414-6.499-28.796-16.419.576-9.227 20.13-13.918 27.008-15.434 15.005-3.312 30.221-4.706 45.536-5.546q.09-.005.09-.096l.006-22.174a.14.14 0 0 0-.04-.1.14.14 0 0 0-.097-.04H59.463q-.103 0-.103-.103V57.627q0-.127.13-.127h134.974q.129 0 .129.127V90.58q0 .103-.102.103H144.93q-.096 0-.098.096l-.035 45.088q-.001.2-.201.216-2.35.183-4.229.25-14.002.514-27.997-.1a80 80 0 0 1-3.101-.214q-.1-.007-.101-.111l-.045-16.813-.004-.024-.014-.021-.021-.013-.024-.004q-11.28.506-22.51 1.802c-8.311.958-16.725 2.328-24.734 4.561-1.972.551-15.38 4.603-12.465 8.365a8 8 0 0 0 2.259 1.995c2.976 1.769 6.243 3.022 9.49 3.939 12.092 3.417 25.327 5.036 37.446 5.928 8.877.653 17.826 1.072 26.727 1.029 19.706-.093 39.652.945 59.067 4.296 7.474 1.291 36.409 6.672 35.118 18.048-1.188 10.469-27.014 15.283-35.12 16.693-13.023 2.266-26.205 3.441-39.402 4.01q-.102.005-.102.107l-.041 31.087q0 .107-.109.107h-35.397q-.149 0-.149-.152l.004-65.098q0-.087-.086-.09m96.515 12.153a22 22 0 0 0-5.526-3.057c-7.631-2.891-15.886-4.486-23.941-5.626a298 298 0 0 0-31.233-2.76.06.06 0 0 0-.038.014.04.04 0 0 0-.011.016l-.005.02.007 27.234q0 .094.094.093c14.855-.545 29.91-1.952 44.436-5.203a79 79 0 0 0 9.663-2.819c2.464-.891 5.219-2.108 7.128-3.953 1.546-1.496.936-2.811-.574-3.959"/><defs><linearGradient id="paint0_linear_4505_910" x1="56.347" x2="196.617" y1="221.001" y2="221.073" gradientUnits="userSpaceOnUse"><stop stop-color="#81F7FA"/><stop offset="1" stop-color="#7AFF91"/></linearGradient></defs></svg>
